X:1
T:Short Jacket and White Trousers
M:4/4
L:1/4
K:C
 e| d c A G| c- d e3/2 e/2| d c A G| A3| g| a g a g| e g ga/2-g/2|\
 e e d g| e3| g| a g e d| e e ga/2-g/2| e e d g| e3| e-| d c/2c/2 A G|\
 c d ea/2-g/2|e/2-d/2 c A G| A3||

